X:130
T:Castle Waltz. Le4.130
M:3/4
L:1/4
Q:1/4=120
B:L.Leadley MS#4 c1850
Z:Village Music Project, 2016 Ruairidh Greig
K:D
B/|(de).f|(aa)g|(bb)g|(ag)e|
(dd)f|(aa)f|"sq in MS"g/e/d/c/B/c/|d2z:|
|:b/|(ac)c|(dg)b|(ac).c|(dd)>A|
(dc)>B|(g>e)c|(ba)c|d2z:|
|:A/|(Bc).d|(ed).c|(de).f|(dd)A|
(Bc).d|(fd)c|d/c/d/f/e/c/|d2z:|
|:f/|(aa)(g/e/)|bb(g/e/)|(ag)e|(df).a|
aa (g/e/)|(bb) (g/e/)|d/c/d/f/e/c/|d2z:|

